X: 21662
T: Kilmore Fancy
R: hornpipe
M: 4/4
K: Dmajor
(3ABc|:dfed B2dB|A2FD EDB,A,|DEFD EDB,D|EEED E2FA|
dfed BedB|ADFD EDB,A,|DEFD EDB,E|1 (3DED CE D2(3ABc:|2 (3DED CE D2ag||
|:fgec dBAd|(3Bcd ed e2ef|gbaf gfed|ceAA A2AG|
(3FGAdc dfed|(3Bcd ef gbag|(3fgf df (3efe ce|1 dfec d2ag:|2 dfec d2 (3ABc||

